X:1193
T:Nattleken
T:Polska efter Plunk (SvL Dalarna 1193)
O:Gärdebyn, Rättvik
R:Polska
S:Gudmund Tåberg
S:Plunk
B:Svenska Låtar Dalarna
M:3/4
L:1/8
K:Ador
Q:126
[AA]z/f/ g(a b)a|fd eg fd|d(g g)(a b)a|(g/f/)e/d/ e2 {BA}[BE]2:|
|:AB cd ef|g(f d)f e2|AB cd ef|g(f d)f e2-|e>c AB cA|B^G A2 A,2-|
A,c cd ef|(g/a/g/f/) d[ec] e2-|e>c AB cA|B^G [GB]A [AA]2:|

